flaticon/delivery/package-9.svg

<svg xmlns="http://www.w3.org/2000/svg" width="32" height="32" viewBox="0 0 24 24">
    <path d="M 22 0.800781 L 15.199219 0.800781 L 15.199219 0.398438 C 15.199219 0.160156 15.039062 0 14.800781 0 L 9.160156 0 C 8.921875 0 8.761719 0.160156 8.761719 0.398438 L 8.761719 0.800781 L 2 0.800781 C 0.878906 0.800781 0 1.679688 0 2.800781 L 0 22 C 0 23.121094 0.878906 24 2 24 L 22 24 C 23.121094 24 24 23.121094 24 22 L 24 2.800781 C 24 1.679688 23.121094 0.800781 22 0.800781 Z M 9.601562 0.800781 L 14.398438 0.800781 L 14.398438 5.921875 L 12.28125 4.078125 C 12.199219 4.039062 12.078125 4 12 4 C 11.921875 4 11.800781 4.039062 11.71875 4.078125 L 9.601562 5.921875 Z M 23.199219 22 C 23.199219 22.679688 22.679688 23.199219 22 23.199219 L 2 23.199219 C 1.320312 23.199219 0.800781 22.679688 0.800781 22 L 0.800781 2.800781 C 0.800781 2.121094 1.320312 1.601562 2 1.601562 L 8.761719 1.601562 L 8.761719 6.078125 C 8.761719 6.398438 8.921875 6.640625 9.199219 6.761719 C 9.480469 6.878906 9.761719 6.839844 10 6.640625 L 12 4.921875 L 14 6.640625 C 14.160156 6.71875 14.320312 6.800781 14.480469 6.800781 C 14.558594 6.800781 14.679688 6.800781 14.71875 6.761719 C 15 6.640625 15.160156 6.359375 15.160156 6.078125 L 15.160156 1.601562 L 22 1.601562 C 22.679688 1.601562 23.199219 2.121094 23.199219 2.800781 Z M 23.199219 22"/>
    <path d="M18 15.199219L6 15.199219C5.761719 15.199219 5.601562 15.359375 5.601562 15.601562 5.601562 15.839844 5.761719 16 6 16L18 16C18.238281 16 18.398438 15.839844 18.398438 15.601562 18.398438 15.359375 18.238281 15.199219 18 15.199219zM7.078125 10.28125L8 9.359375 8 14C8 14.238281 8.160156 14.398438 8.398438 14.398438 8.640625 14.398438 8.800781 14.238281 8.800781 14L8.800781 9.359375 9.71875 10.28125C9.800781 10.359375 9.878906 10.398438 10 10.398438 10.121094 10.398438 10.199219 10.359375 10.28125 10.28125 10.441406 10.121094 10.441406 9.878906 10.28125 9.71875L8.75 8.1875C8.683594 8.070312 8.558594 8 8.398438 8 8.242188 8 8.117188 8.070312 8.050781 8.1875L6.519531 9.71875C6.359375 9.878906 6.359375 10.121094 6.519531 10.28125 6.679688 10.441406 6.921875 10.441406 7.078125 10.28125zM14.28125 10.28125L15.199219 9.359375 15.199219 14C15.199219 14.238281 15.359375 14.398438 15.601562 14.398438 15.839844 14.398438 16 14.238281 16 14L16 9.359375 16.921875 10.28125C17 10.359375 17.078125 10.398438 17.199219 10.398438 17.320312 10.398438 17.398438 10.359375 17.480469 10.28125 17.640625 10.121094 17.640625 9.878906 17.480469 9.71875L15.949219 8.1875C15.882812 8.070312 15.757812 8 15.601562 8 15.441406 8 15.316406 8.070312 15.25 8.1875L13.71875 9.71875C13.558594 9.878906 13.558594 10.121094 13.71875 10.28125 13.878906 10.441406 14.121094 10.441406 14.28125 10.28125zM7.601562 19.199219L8.800781 19.199219C9.039062 19.199219 9.199219 19.039062 9.199219 18.800781 9.199219 18.558594 9.039062 18.398438 8.800781 18.398438L7.601562 18.398438C7.359375 18.398438 7.199219 18.558594 7.199219 18.800781 7.199219 19.039062 7.359375 19.199219 7.601562 19.199219zM16.398438 20L13.601562 20C13.359375 20 13.199219 20.160156 13.199219 20.398438 13.199219 20.640625 13.359375 20.800781 13.601562 20.800781L16.398438 20.800781C16.640625 20.800781 16.800781 20.640625 16.800781 20.398438 16.800781 20.160156 16.640625 20 16.398438 20zM10.398438 19.199219L16.398438 19.199219C16.640625 19.199219 16.800781 19.039062 16.800781 18.800781 16.800781 18.558594 16.640625 18.398438 16.398438 18.398438L10.398438 18.398438C10.160156 18.398438 10 18.558594 10 18.800781 10 19.039062 10.160156 19.199219 10.398438 19.199219zM7.601562 20.800781L12 20.800781C12.238281 20.800781 12.398438 20.640625 12.398438 20.398438 12.398438 20.160156 12.238281 20 12 20L7.601562 20C7.359375 20 7.199219 20.160156 7.199219 20.398438 7.199219 20.640625 7.359375 20.800781 7.601562 20.800781zM7.601562 20.800781"/>
    <path d="M 18 16.800781 L 6 16.800781 C 5.761719 16.800781 5.601562 16.960938 5.601562 17.199219 L 5.601562 22 C 5.601562 22.238281 5.761719 22.398438 6 22.398438 L 18 22.398438 C 18.238281 22.398438 18.398438 22.238281 18.398438 22 L 18.398438 17.199219 C 18.398438 16.960938 18.238281 16.800781 18 16.800781 Z M 17.601562 21.601562 L 6.398438 21.601562 L 6.398438 17.601562 L 17.601562 17.601562 Z M 17.601562 21.601562"/>
</svg>

<svg xmlns="http://www.w3.org/2000/svg" width="32" height="32" viewBox="0 0 24 24">
    <path d="M22 .8h-6.8V.399C15.2.16 15.04 0 14.8 0H9.16c-.238 0-.398.16-.398.398v.403H2c-1.121 0-2 .879-2 2V22c0 1.121.879 2 2 2h20c1.121 0 2-.879 2-2V2.8c0-1.12-.879-2-2-2zM9.602.8h4.796v5.122l-2.117-1.844A.782.782 0 0 0 12 4c-.078 0-.2.04-.281.078L9.602 5.922zM23.199 22c0 .68-.52 1.2-1.199 1.2H2c-.68 0-1.2-.52-1.2-1.2V2.8c0-.679.52-1.198 1.2-1.198h6.762v4.476c0 .32.16.563.437.684A.745.745 0 0 0 10 6.64l2-1.72 2 1.72c.16.078.32.16.48.16.079 0 .2 0 .239-.04a.743.743 0 0 0 .441-.683V1.602H22c.68 0 1.2.52 1.2 1.199zm0 0"/>
    <path d="M18 15.2H6c-.238 0-.398.16-.398.402 0 .238.16.398.398.398h12c.238 0 .398-.16.398-.398 0-.243-.16-.403-.398-.403zm0 0M7.078 10.281L8 9.36V14c0 .238.16.398.398.398.243 0 .403-.16.403-.398V9.36l.918.921c.082.078.16.117.281.117.121 0 .2-.039.281-.117a.39.39 0 0 0 0-.562L8.75 8.188C8.684 8.07 8.559 8 8.398 8a.383.383 0 0 0-.347.188L6.52 9.717a.39.39 0 0 0 0 .563c.16.16.402.16.558 0zm0 0M14.281 10.281l.918-.922V14c0 .238.16.398.403.398.238 0 .398-.16.398-.398V9.36l.922.921a.357.357 0 0 0 .277.117c.121 0 .2-.039.281-.117a.39.39 0 0 0 0-.562l-1.53-1.531A.383.383 0 0 0 15.601 8c-.16 0-.286.07-.352.188l-1.531 1.53a.39.39 0 0 0 0 .563c.16.16.402.16.562 0zm0 0M7.602 19.2H8.8c.238 0 .398-.16.398-.4 0-.241-.16-.402-.398-.402H7.6c-.242 0-.402.16-.402.403 0 .238.16.398.403.398zm0 0M16.398 20h-2.796c-.243 0-.403.16-.403.398 0 .243.16.403.403.403h2.796c.243 0 .403-.16.403-.403 0-.238-.16-.398-.403-.398zm0 0M10.398 19.2h6c.243 0 .403-.16.403-.4 0-.241-.16-.402-.403-.402h-6c-.238 0-.398.16-.398.403 0 .238.16.398.398.398zm0 0M7.602 20.8H12c.238 0 .398-.16.398-.402 0-.238-.16-.398-.398-.398H7.602c-.243 0-.403.16-.403.398 0 .243.16.403.403.403zm0 0"/>
    <path d="M18 16.8H6c-.238 0-.398.16-.398.4V22c0 .238.16.398.398.398h12c.238 0 .398-.16.398-.398v-4.8c0-.24-.16-.4-.398-.4zm-.398 4.802H6.398v-4h11.204zm0 0"/>
</svg>
